images/close.svg

<?xml version="1.0" encoding="UTF-8" standalone="no"?>
<svg width="28px" height="28px" viewBox="0 0 28 28" version="1.1" xmlns="http://www.w3.org/2000/svg" xmlns:xlink="http://www.w3.org/1999/xlink">
    <!-- Generator: Sketch 3.7 (28169) - http://www.bohemiancoding.com/sketch -->
    <title>close</title>
    <desc>Created with Sketch.</desc>
    <defs></defs>
    <g id="Page-1" stroke="none" stroke-width="1" fill="none" fill-rule="evenodd">
        <g id="Desktop-Copy-13" transform="translate(-1157.000000, -24.000000)" fill="#000000">
            <g id="noun_149007_cc-copy" transform="translate(1157.000000, 24.000000)">
                <g id="Group">
                    <g id="close">
                        <path d="M26.5902609,28 C26.3075217,28 26.0244783,27.8907692 25.8086957,27.6726154 L0.627869565,2.21538462 C0.196,1.77938462 0.196,1.07107692 0.627869565,0.635076923 C1.05973913,0.198461538 1.75943478,0.198461538 2.19130435,0.635076923 L27.3721304,26.0923077 C27.804,26.5283077 27.804,27.2366154 27.3721304,27.6726154 C27.1560435,27.8910769 26.873,28 26.5902609,28 L26.5902609,28 Z" id="Shape"></path>
                        <path d="M1.40973913,28 C1.127,28 0.843956522,27.8907692 0.628173913,27.6726154 C0.196304348,27.2366154 0.196304348,26.5283077 0.628173913,26.0923077 L25.8086957,0.634769231 C26.2405652,0.198153846 26.9402609,0.198153846 27.3721304,0.634769231 C27.804,1.07076923 27.804,1.77907692 27.3721304,2.21507692 L2.19130435,27.6726154 C1.97552174,27.8910769 1.69247826,28 1.40973913,28 L1.40973913,28 Z" id="Shape"></path>
                    </g>
                </g>
            </g>
        </g>
    </g>
</svg>

<svg width="28" height="28" viewBox="0 0 28 28" xmlns="http://www.w3.org/2000/svg"><title>close</title><g id="Page-1" fill="none" fill-rule="evenodd"><g id="Desktop-Copy-13" transform="translate(-1157 -24)" fill="#000"><g id="noun_149007_cc-copy" transform="translate(1157 24)"><g id="Group"><g id="close"><path d="M26.59 28c-.282 0-.566-.11-.781-.327L.628 2.215a1.126 1.126 0 0 1 0-1.58 1.097 1.097 0 0 1 1.563 0l25.181 25.457a1.126 1.126 0 0 1 0 1.58c-.216.22-.499.328-.782.328z" id="Shape"/><path d="M1.41 28c-.283 0-.566-.11-.782-.327a1.126 1.126 0 0 1 0-1.58L25.808.634a1.097 1.097 0 0 1 1.564 0 1.126 1.126 0 0 1 0 1.58L2.192 27.673A1.095 1.095 0 0 1 1.41 28z" id="Shape"/></g></g></g></g></g></svg>
